packages/icons/svg/Instruction_Payment_NoContact_48px.svg

<svg xmlns="http://www.w3.org/2000/svg" viewBox="0 0 48 48"><path d="M42 10H6a2 2 0 00-2 2v24a2 2 0 002 2h36a2 2 0 002-2V12a2 2 0 00-2-2zm-1 25H7V13h34z"/><path d="M10 28.5h7a1 1 0 001-1v-7a1 1 0 00-1-1h-7a1 1 0 00-1 1v7a1 1 0 001 1zm1-3.5h1.5v1.5H11zm5 1.5h-1.5v-5H16zm-3.5-5V23H11v-1.5z"/><circle cx="27" cy="24" r="1.5"/><path d="M33.38 30.65a1 1 0 001.42 0 9.49 9.49 0 000-13.26 1 1 0 10-1.43 1.4 7.49 7.49 0 010 10.46 1 1 0 00.01 1.4z"/><path d="M30 27.85a1 1 0 00.7.29 1 1 0 00.71-.3 5.48 5.48 0 000-7.68 1 1 0 00-1.41 1.4 3.48 3.48 0 010 4.88 1 1 0 000 1.41z"/></svg>

<svg xmlns="http://www.w3.org/2000/svg" viewBox="0 0 48 48"><defs></defs><g id="Icon"><path  d="M42,10H6a2,2,0,0,0-2,2V36a2,2,0,0,0,2,2H42a2,2,0,0,0,2-2V12A2,2,0,0,0,42,10ZM41,35H7V13H41Z"/><path  d="M10,28.5h7a1,1,0,0,0,1-1v-7a1,1,0,0,0-1-1H10a1,1,0,0,0-1,1v7A1,1,0,0,0,10,28.5ZM11,25h1.5v1.5H11Zm5,1.5H14.5v-5H16Zm-3.5-5V23H11V21.5Z"/><circle  cx="27" cy="24" r="1.5"/><path  d="M33.38,30.65a1,1,0,0,0,1.42,0,9.49,9.49,0,0,0,0-13.26,1,1,0,1,0-1.43,1.4,7.49,7.49,0,0,1,0,10.46A1,1,0,0,0,33.38,30.65Z"/><path  d="M30,27.85a1,1,0,0,0,.7.29,1,1,0,0,0,.71-.3,5.48,5.48,0,0,0,0-7.68A1,1,0,0,0,30,21.56a3.48,3.48,0,0,1,0,4.88A1,1,0,0,0,30,27.85Z"/></g></svg>
